SVG/inr.svg

<?xml version="1.0" encoding="utf-8"?>
<!-- Generated by IcoMoon.io -->
<!DOCTYPE svg PUBLIC "-//W3C//DTD SVG 1.1//EN" "http://www.w3.org/Graphics/SVG/1.1/DTD/svg11.dtd">
<svg version="1.1" xmlns="http://www.w3.org/2000/svg" xmlns:xlink="http://www.w3.org/1999/xlink" width="7" height="14" viewBox="0 0 7 14">
<path fill="#444444" d="M7.016 3.672v0.797q0 0.109-0.070 0.18t-0.18 0.070h-1.313q-0.18 1.125-1.008 1.828t-2.156 0.859q1.305 1.391 3.586 4.188 0.109 0.125 0.031 0.266-0.062 0.141-0.227 0.141h-1.523q-0.125 0-0.195-0.094-2.391-2.867-3.891-4.461-0.070-0.070-0.070-0.172v-0.992q0-0.102 0.074-0.176t0.176-0.074h0.875q1.031 0 1.66-0.336t0.801-0.977h-3.336q-0.109 0-0.18-0.070t-0.070-0.18v-0.797q0-0.109 0.070-0.18t0.18-0.070h3.227q-0.445-0.883-2.094-0.883h-1.133q-0.102 0-0.176-0.074t-0.074-0.176v-1.039q0-0.109 0.070-0.18t0.18-0.070h6.5q0.109 0 0.18 0.070t0.070 0.18v0.797q0 0.109-0.070 0.18t-0.18 0.070h-1.82q0.367 0.477 0.5 1.125h1.336q0.109 0 0.18 0.070t0.070 0.18z"></path>
</svg>

<svg xmlns="http://www.w3.org/2000/svg" viewBox="0 0 7 14"><path d="M7.016 3.672v.797q0 .108-.07.18t-.18.07H5.453q-.18 1.124-1.008 1.827t-2.156.86q1.304 1.39 3.585 4.187.11.125.03.266-.06.14-.226.14H4.155q-.125 0-.195-.093Q1.57 9.04.07 7.447 0 7.376 0 7.273v-.992q0-.102.074-.176t.176-.074h.875q1.03 0 1.66-.336t.8-.977H.25q-.11 0-.18-.07T0 4.47V3.67q0-.11.07-.18t.18-.07h3.227q-.445-.883-2.094-.883H.25q-.102 0-.176-.075T0 2.29V1.25q0-.11.07-.18T.25 1h6.5q.11 0 .18.07t.07.18v.797q0 .11-.07.18t-.18.07H4.93q.367.477.5 1.125h1.336q.11 0 .18.07t.07.18z" /></svg>
